X: 382
T: Telemak
C: Franz Anton Hoffmeister
L: 1/8
M: 6/8
N: Derived from pl-sa--481-a-viii-121--014_hoffmeister-franz-anton--telemak.krn
%%staves {1 2}
V: 1 clef=treble
V: 2 clef=bass
K: F
[V:1] c [I:setbarnb 1]| 
[V:2] z | 
[V:1] [f2c2A2]z[g2e2c2]z | 
[V:2] F,2zC,2z | 
[V:1] [a3f3c3]z2 ]|:  
[V:2] F,,2xz2 ]|:  
[V:1] [cA] [I:setbarnb 3]| 
[V:2] z | 
[V:1] [cA]>[BG][AF] [AF]>[GE][AF] | 
[V:2] F,2zF,,2z | 
[V:1] [A2^F2][BG][G2E2]E | 
[V:2] z C,CC,2E, | 
[V:1] F>EF G>^FG | 
[V:2] F,>E,F, G,>^F,G, | 
[V:1] C[GE][GE] [GE][AF][BG] | 
[V:2] C,[B,G,][B,G,] [B,G,][A,F,][G,E,] | 
[V:1] [cA]>[BG][AF] [AF]>[GE][AF] | 
[V:2] F,2zF,,2z | 
[V:1] [A2^F2][BG][G2E2][GE] | 
[V:2] z C,CC,2C, | 
[V:1] [cAF]>[BG][AF] [GE]>[AF][GE] | 
[V:2] F,2F,C,2C, | 
[V:1] A[fcA][fcA][f2c2A2][AF] | 
[V:2] F,C,A,,F,,2z | 
[V:1] [GE]>[AF][GE] [GE][EC][cE] | 
[V:2] C,3C,,3 | 
[V:1] [c3E3][B2D2][FD] | 
[V:2] z G,G,G,,2z | 
[V:1] [FD][AF][GE] [FD][EC][FD] | 
[V:2] G,3G,,3 | 
[V:1] [FD][EC][EC][E2C2][GE] | 
[V:2] C,G,,E,,C,,2z | 
[V:1] G/E/C/E/G/E/ G/C/c/C/[_B/G/]C/ | 
[V:2] [G,2E,2C,2]z[G,2E,2C,2]z | 
[V:1] [A/F/]C/[A/F/]C/[A/F/]C/ [A/F/]C/[c/A/]C/[A/F/]C/ | 
[V:2] [F,3F,,3][F,3F,,3] | 
[V:1] [GE]>[AF][GE] [FD][EC][DB,] | 
[V:2] G,3G,,3 | 
[V:1] [CG,E,][CG,E,][CG,E,][C2G,2E,2]C | 
[V:2] C,G,,E,,C,,2z | 
[V:1] FFF !turn!FGA | 
[V:2] [C,3A,,3][C,3A,,3] | 
[V:1] A2Gz2G | 
[V:2] z[D,2B,,2][D,B,,][D,B,,] z | 
[V:1] GGG !turn!GAB | 
[V:2] [E,3C,3][E,3^C,3] | 
[V:1] B2Az2F | 
[V:2] z [F,D,][F,D,][F,2D,2]z | 
[V:1] FAc cBA | 
[V:2] [C,3A,,3][C,3A,,3] | 
[V:1] A2Gz2d | 
[V:2] z [D,B,,][D,B,,][D,2B,,2][_A,F,D,=B,,] | 
[V:1] FFF F!turn!GE | 
[V:2] =A,A,A, A,B,G, & C,C,C, C,C,C, | 
[V:1] F/f/g/a/b/c'/[d'2_b2f2]d | 
[V:2] [A,3F,3][_A,3F,3D,3=B,,3] | 
[V:1] FFF FGE | 
[V:2] [A,C,][A,C,][A,C,] [A,C,][B,C,][G,C,] | 
[V:1] F[fcA][fcA][f2c2A2]z |]  
[V:2] [A,F,]C,A,,F,,2z |]  

